**kern	**text	**kern	**text	**kern	**text	**kern	**text	**kern	**text
*staff5	*staff5	*staff4	*staff4	*staff3	*staff3	*staff2	*staff2	*staff1	*staff1
=1-	=1-	=1-	=1-	=1-	=1-	=1-	=1-	=1-	=1-
*clefF4	*	*clefGv2	*	*clefGv2	*	*clefGv2	*	*clefG2	*
*k[]	*	*k[]	*	*k[]	*	*k[]	*	*k[]	*
*M4/4	*	*M4/4	*	*M4/4	*	*M4/4	*	*M4/4	*
1G\	Gi&agrave;	1r	.	2r	.	1r	.	1r	.
.	.	.	.	2G/	Gi&agrave;	.	.	.	.
=2	=2	=2	=2	=2	=2	=2	=2	=2	=2
2F\	non	2r	.	4A/	non	1r	.	2r	.
.	.	.	.	4B\	mi	.	.	.	.
2E\	mi	2G/	Gi&agrave;	4c\	me-	.	.	2g/	Gi&agrave;
.	.	.	.	4G/	ra-	.	.	.	.
=3	=3	=3	=3	=3	=3	=3	=3	=3	=3
2D\	me-	4A/	non	2d\	vi-	1r	.	2f/	non
.	.	4B\	mi	.	.	.	.	.	.
2C/	ra-	2c\	me-	2G/	glio	.	.	2e/	mi
=4	=4	=4	=4	=4	=4	=4	=4	=4	=4
1G\	vi-	4B\	ra-	1r	.	1r	.	4d/	me-
.	.	2c\	vi-	.	.	.	.	4e/	ra-
.	.	.	.	.	.	.	.	2d/	vi-
.	.	4B\	glio	.	.	.	.	.	.
=5	=5	=5	=5	=5	=5	=5	=5	=5	=5
1C/	glio	1c\	.	1r	.	1g\	Gi&agrave;	2e/	glio
.	.	.	.	.	.	.	.	4r	.
.	.	.	.	.	.	.	.	4g/	Gi&agrave;
=6	=6	=6	=6	=6	=6	=6	=6	=6	=6
2r	.	1r	.	2r	.	2f\	non	2a/	non
2E\	Gi&agrave;	.	.	2G/	Gi&agrave;	2e\	mi	4b\	mi
.	.	.	.	.	.	.	.	[4cc\	me-
=7	=7	=7	=7	=7	=7	=7	=7	=7	=7
4F\	non	2r	.	4A/	non	2d\	me-	4cc\]	.
4G\	mi	.	.	4B\	mi	.	.	4b\	ra-
4A\	me-	[2e\	Se	4c\	me-	2c\	ra-	2a/	vi-
4c\	ra-	.	.	4A/	ra-	.	.	.	.
=8	=8	=8	=8	=8	=8	=8	=8	=8	=8
1G\	vi-	2e\]	.	1d\	vi-	1f\	vi-	4b\	.
.	.	.	.	.	.	.	.	2cc\	.
.	.	2d\	per	.	.	.	.	.	.
.	.	.	.	.	.	.	.	4b\	.
=9	=9	=9	=9	=9	=9	=9	=9	=9	=9
2C/	glio	2e\	me	1c\	glio	2f\	glio	2cc\	gio
[2F\	Se	[2c\	lau-	.	.	2r	.	[2a/	Se
=10	=10	=10	=10	=10	=10	=10	=10	=10	=10
2F\]	.	4c\]	.	1r	.	2r	.	2a/]	.
.	.	4A/	roin-	.	.	.	.	.	.
2E\	per	2B\	fi-	.	.	[2e\	Se	2g/	per
=11	=11	=11	=11	=11	=11	=11	=11	=11	=11
1F\	me	1A/	do	1r	.	2e\]	.	1a/	me
.	.	.	.	.	.	2d\	per	.	.
=12	=12	=12	=12	=12	=12	=12	=12	=12	=12
2C/	lau-	1r	.	2r	.	2e\	me	2g/	lau-
2D\	roin-	.	.	[2A/	Se	4d\	lau-	2f/	roin-
.	.	.	.	.	.	4c\	roin-	.	.
=13	=13	=13	=13	=13	=13	=13	=13	=13	=13
1E\	fi-	1r	.	2A/]	.	2B\	fi-	1e/	fi-
.	.	.	.	2G#/	per	2B\	do	.	.
=14	=14	=14	=14	=14	=14	=14	=14	=14	=14
2AA/	do	1c\	I	2A/	me	2r	.	2e/	do
2AA/	I	.	.	4E/	lau-	[2e\	I	2r	.
.	.	.	.	4F/	roin	.	.	.	.
=15	=15	=15	=15	=15	=15	=15	=15	=15	=15
2GG/	tuoi	2B\	tuoi	2G/	fi-	4e\]	.	2g/	I
.	.	.	.	.	.	4d\	tuoi	.	.
2G\	ra-	2c\	ra-	2C/	do	2e\	ra-	4g/	tuoi
.	.	.	.	.	.	.	.	[4g/	ra-
=16	=16	=16	=16	=16	=16	=16	=16	=16	=16
4G\	miad	4B\	miad	1r	.	4d\	miad	8g/L]	.
.	.	.	.	.	.	.	.	8g/J	miad
4A\	A-	4A/	A-	.	.	4c\	A-	4e/	A-
2E\	mor	[2G/	mor	.	.	2B\	mor	2e/	mor
=17	=17	=17	=17	=17	=17	=17	=17	=17	=17
2C/	I	2G/]	.	2e\	I	2g\	I	4r	.
.	.	.	.	.	.	.	.	2cc\	I
2GG/	tuoi	2G/	non	2d\	tuoi	2g\	tuoi	.	.
.	.	.	.	.	.	.	.	4b\	tuoi
=18	=18	=18	=18	=18	=18	=18	=18	=18	=18
2C/	ra-	4.E/	fan	2e\	ra-	2g\	ra-	2cc\	ra-
.	.	8F/	pi&ugrave;	.	.	.	.	.	.
4GG/	miad	4G/	ni-	4d\	miad	4g\	miad	4b\	miad
4AA/	A-	4C/	do	4c\	A-	4e\	A-	4a/	A
=19	=19	=19	=19	=19	=19	=19	=19	=19	=19
2E\	mor	4r	.	2B\	mor	2e\	mor	2g/	mor
.	.	2G/	non	.	.	.	.	.	.
2E\	non	.	.	2c\	non	2g\	non	2e/	non
.	.	[4c\	fan	.	.	.	.	.	.
=20	=20	=20	=20	=20	=20	=20	=20	=20	=20
2C/	fan	4c\]	.	2C/	fan	2e\	fan	2g/	fan
.	.	4G/	pi&ugrave;	.	.	.	.	.	.
2FF/	pi&ugrave;	[2c\	ni-	2C/	pi&ugrave;	2f\	pi&ugrave;	2a/	pi&ugrave;
=21	=21	=21	=21	=21	=21	=21	=21	=21	=21
1GG/	ni-	4c\]	.	1G/	ni-	1d\	ni-	1g/	ni-
.	.	8B/L	.	.	.	.	.	.	.
.	.	8A/J	.	.	.	.	.	.	.
.	.	2B\	.	.	.	.	.	.	.
=22	=22	=22	=22	=22	=22	=22	=22	=22	=22
1C/	do	2c\	do	2G/	do	2e\	do	2g/	do
.	.	4r	.	4r	.	4r	.	4r	.
.	.	4C/	Main	4c\	Main	4g\	Main	4e/	Main
=23	=23	=23	=23	=23	=23	=23	=23	=23	=23
1r	.	4G/	ar-	4B\	ar-	4g\	ar-	4d/	ar-
.	.	4A/	co	4A/	co	4e\	co	4c/	co
.	.	2G/	be-	2B\	be-	2g\	be-	2d/	be-
=24	=24	=24	=24	=24	=24	=24	=24	=24	=24
1r	.	4C/	ne	4c\	ne	2g\	ne	2e/	ne
.	.	2c\	di	4C/	di	.	.	.	.
.	.	.	.	4D/	stu-	4f\	di	4f/	di
.	.	4B\	stu-	4E/	por	4e\	stu-	4g/	stu-
=25	=25	=25	=25	=25	=25	=25	=25	=25	=25
1r	.	4A/	por	4F#/	il	2d\	por	4a/	por
.	.	4G/	il	2G/	ci-	.	.	4b\	il
.	.	2A/	ci-	.	.	4c\	di	2cc\	ci-
.	.	.	.	4F#/	.	4d\	stu-	.	.
=26	=26	=26	=26	=26	=26	=26	=26	=26	=26
4r	.	2G/	glio	2G/	glio	4e\	por	4b\	glio
4C/	Main	.	.	.	.	4e\	il	2g/	di
4G\	ar-	2r	.	4r	.	4d\	ci-	.	.
4A\	co	.	.	[4c\	di	4c\	glio	4f/	stu-
=27	=27	=27	=27	=27	=27	=27	=27	=27	=27
2G\	be-	1r	.	4c\]	.	4r	.	4e/	por
.	.	.	.	4B\	stu-	4G/	Main	4d/	il
4C/	ne	.	.	4A/	por	[2c\	ar-	[2e/	ci-
[4C/	di	.	.	4G/	il	.	.	.	.
=28	=28	=28	=28	=28	=28	=28	=28	=28	=28
4C/]	.	1r	.	8A/L	ci-	4c\]	.	4e/]	.
.	.	.	.	8E/J	.	.	.	.	.
4BB/	stu-	.	.	[4G/	.	4d\	co	4d/	glio
2AA/	por	.	.	8G/L]	.	4c\	be-	4r	.
.	.	.	.	16F/L	.	.	.	.	.
.	.	.	.	16E/JJ	.	.	.	.	.
.	.	.	.	4F/	.	4A/	ne	[4cc\	di
=29	=29	=29	=29	=29	=29	=29	=29	=29	=29
2GG/	il	4r	.	2F/	glio	2.d\	di	4cc\]	.
.	.	4G/	Che	.	.	.	.	4b\	stu-
[2D\	ci-	4F#/	sia	2r	.	.	.	4a/	por
.	.	4G/	d'A-	.	.	4d\	stu-	4g/	il
=30	=30	=30	=30	=30	=30	=30	=30	=30	=30
1D\]	.	4A/	pol-	2r	.	4d\	por	4f#/	ci-
.	.	4B-\	lo	.	.	4d\	il	2g/	.
.	.	2A/	vin-	4r	.	2d\	ci-	.	.
.	.	.	.	4A/	Che	.	.	4f#/	.
=31	=31	=31	=31	=31	=31	=31	=31	=31	=31
2GG/	glio	2G/	ta	4B-\	sia	2d\	glio	4g/	glio
.	.	.	.	4B-\	d'A-	.	.	4d/	Che
2r	.	4A/	L'al-	4A/	pol-	2r	.	4c/	sia
.	.	4B\	ta	8G/L	.	.	.	4d/	d'A-
.	.	.	.	8F/J	.	.	.	.	.
=32	=32	=32	=32	=32	=32	=32	=32	=32	=32
1r	.	4c#\	bel-	4E/	.	2r	.	4e/	pol-
.	.	2d\	lez-	4D/	lo	.	.	4f/	lo
.	.	.	.	2A/	vin-	4r	.	2e/	vin-
.	.	4c#\	.	.	.	4e\	Che	.	.
=33	=33	=33	=33	=33	=33	=33	=33	=33	=33
4r	.	2d\	za	2D/	ta	4f\	sia	2d/	ta
4D\	Che	.	.	.	.	4f\	d'A-	.	.
4C#/	sia	2r	.	2A/	L'al-	4e\	pol-	4e/	L'al-
4D\	d'A-	.	.	.	.	8d\L	.	4f#/	ta
.	.	.	.	.	.	8c\J	.	.	.
=34	=34	=34	=34	=34	=34	=34	=34	=34	=34
4E\	pol-	1r	.	4e\	ta	4B\	.	4g#/	bel-
4F\	lo	.	.	4d\	bel-	4A/	lo	2a/	lez-
2E\	vin-	.	.	2e\	lez-	2B\	vin-	.	.
.	.	.	.	.	.	.	.	4g#/	.
=35	=35	=35	=35	=35	=35	=35	=35	=35	=35
2AA/	ta	1r	.	2e\	za	4A/	ta	4a/	za
.	.	.	.	.	.	4c\	L'al-	4a/	e
4E\	L'al-	.	.	4r	.	4B\	ta	4g#/	sia
4F\	ta	.	.	4c\	e	4A/	bel-	4a/	di
=36	=36	=36	=36	=36	=36	=36	=36	=36	=36
4G\	bel-	2r	.	4B\	sia	2e\	lez-	4b\	pi&ugrave;
2A\	lez-	.	.	4A/	di	.	.	4cc\	lu-
.	.	2E/	e	4.B\	pi&ugrave;	2e\	za	2b\	cen-
4G#\	.	.	.	.	.	.	.	.	.
.	.	.	.	8c\	lu	.	.	.	.
=37	=37	=37	=37	=37	=37	=37	=37	=37	=37
2A\	za	2F/	sia	2d\	cen-	1r	.	2a/	ti
4r	.	4E/	di	4e\	ti	.	.	4r	.
4AA/	e	4F/	pi&ugrave;	4c\	Al-	.	.	4a/	Al-
=38	=38	=38	=38	=38	=38	=38	=38	=38	=38
4E\	sia	4G/	lu-	4B\	tra	1r	.	4b\	tra
4C/	di	[4A/	cen-	4e\	bel-	.	.	4cc\	bel-
4D\	pi&ugrave;	8A/L]	.	4d\	lez-	.	.	2b\	lez-
.	.	8A/J	ti	.	.	.	.	.	.
4E\	lu-	4G/	Al-	4B\	zae	.	.	.	.
=39	=39	=39	=39	=39	=39	=39	=39	=39	=39
8AA/L	cen-	4F/	tra	8c\L	rai	1r	.	2a/	zae
8BB/J	.	.	.	8d\J	pi&ugrave;	.	.	.	.
8C/L	.	4E/	bel-	2e\	cal-	.	.	.	.
8AA/J	.	.	.	.	.	.	.	.	.
2A\	.	2F/	lez-	.	.	.	.	4cc\	rai
.	.	.	.	4d\	di	.	.	4dd\	pi&ugrave;
=40	=40	=40	=40	=40	=40	=40	=40	=40	=40
4G\	ti	2E/	za	2c\	cin-	4r	.	8ee\L	cal-
.	.	.	.	.	.	.	.	8dd\J	.
4G\	Al-	.	.	.	.	4G/	e	8cc\L	.
.	.	.	.	.	.	.	.	8b\J	.
4F\	tra	2r	.	4d\	.	4A/	sia	4a/	.
4E\	bel-	.	.	[4e\	.	4c\	di	4g/	di
=41	=41	=41	=41	=41	=41	=41	=41	=41	=41
2F\	lez-	2r	.	4e\]	.	2A/	pi&ugrave;	2a/	cin-
.	.	.	.	4d\	.	.	.	.	.
2E\	zae	4r	.	2e\	ta.	4B\	lu-	2g/	ta.
.	.	4e\	e	.	.	[4c\	cen-	.	.
=42	=42	=42	=42	=42	=42	=42	=42	=42	=42
4F\	rai	2d\	rai	1r	.	4c\]	.	1r	.
4G\	pi&ugrave;	.	.	.	.	4B\	ti	.	.
8A\L	cal-	4c\	pi&ugrave;	.	.	4r	.	.	.
8G\J	.	.	.	.	.	.	.	.	.
8F\L	.	4A/	cal-	.	.	4c\	Al-	.	.
8E\J	.	.	.	.	.	.	.	.	.
=43	=43	=43	=43	=43	=43	=43	=43	=43	=43
4D\	.	4B\	di	1r	.	4d\	tra	1r	.
4C/	di	2c\	cin-	.	.	4e\	bel-	.	.
2D\	cin-	.	.	.	.	2f\	lez-	.	.
.	.	4B\	.	.	.	.	.	.	.
=44	=44	=44	=44	=44	=44	=44	=44	=44	=44
2C/	ta.	4c\	ta.	4r	.	2e\	zae	1r	.
.	.	2A/	Pur	2c\	Pur	.	.	.	.
4D\	Pur	.	.	.	.	4f\	rai	.	.
4E\	&egrave;	4G/	&egrave;	4B\	&egrave;	4g\	pi&ugrave;	.	.
=45	=45	=45	=45	=45	=45	=45	=45	=45	=45
2F\	ver	4F/	ver	2A/	ver	8a\L	cal-	2r	.
.	.	.	.	.	.	8g\J	.	.	.
.	.	4A/	che	.	.	8f\L	.	.	.
.	.	.	.	.	.	8e\J	.	.	.
4r	.	4B\	n&egrave;ar-	4r	.	4d\	.	4r	.
[4F\	Pur	[4c\	den-	[4A/	Pur	4c\	di	[4f/	Pur
=46	=46	=46	=46	=46	=46	=46	=46	=46	=46
4F\]	.	4c\]	.	4A/]	.	2d\	cin-	4f/]	.
4G\	&egrave;	4B\	ti	4B\	&egrave;	.	.	4d/	&egrave;
4C/	ver	2e\	Lam-	4c\	ver	2c\	ta.	2g/	ver
4E\	che	.	.	4G/	che	.	.	.	.
=47	=47	=47	=47	=47	=47	=47	=47	=47	=47
4F#\	n&egrave;ar-	2d\	pi	4A/	n&egrave;ar-	2r	.	1r	.
2G\	den-	.	.	2B\	den-	.	.	.	.
.	.	4B\	del	.	.	[2e\	Pur	.	.
4E\	ti	[4c\	suo	4G/	ti	.	.	.	.
=48	=48	=48	=48	=48	=48	=48	=48	=48	=48
2A\	Lam-	4c\]	.	2c\	Lam-	4e\]	.	2a/	Pur
.	.	4A/	bel	.	.	4f#\	&egrave;	.	.
2G\	pi	2d\	vol-	4B\	pi	2g\	ver	2b\	&egrave;
.	.	.	.	[4G/	del	.	.	.	.
=49	=49	=49	=49	=49	=49	=49	=49	=49	=49
2E\	del	2G/	to	4G/]	.	2r	.	1cc\	ver
.	.	.	.	2c\	suo	.	.	.	.
4F\	suo	2r	.	.	.	[2A/	Pur	.	.
4F\	bel	.	.	4A/	bel	.	.	.	.
=50	=50	=50	=50	=50	=50	=50	=50	=50	=50
2D\	vol-	2r	.	2d\	vol-	4A/]	.	2r	.
.	.	.	.	.	.	4B\	&egrave;	.	.
2C/	to	2E/	che	4G/	to	4c\	ver	2g/	che
.	.	.	.	[4c\	del	[4e\	che	.	.
=51	=51	=51	=51	=51	=51	=51	=51	=51	=51
1r	.	4F/	n&egrave;ar-	4c\]	.	4e\]	.	4a/	n&egrave;ar-
.	.	2G/	den-	4B\	suo	4d\	n&egrave;ar-	2b\	den-
.	.	.	.	4B\	bel	[2e\	den-	.	.
.	.	4E/	ti	[4c\	vol-	.	.	4g/	ti
=52	=52	=52	=52	=52	=52	=52	=52	=52	=52
1r	.	2A/	Lam-	4c\]	.	4e\]	.	2cc\	Lam-
.	.	.	.	8B/L	.	4f\	ti	.	.
.	.	.	.	8A/J	.	.	.	.	.
.	.	2G/	pi	2d\	.	4g\	Lam-	2b\	pi
.	.	.	.	.	.	4g\	pi	.	.
=53	=53	=53	=53	=53	=53	=53	=53	=53	=53
2C/	N&egrave;	4G/	del	2e\	to	4g\	del	2g/	del
.	.	2c\	suo	.	.	4e\	suo	.	.
2F\	fo-	.	.	2r	.	4A/	bel	4a/	suo
.	.	4A/	bel	.	.	[4c\	vol-	4a/	bel
=54	=54	=54	=54	=54	=54	=54	=54	=54	=54
2D\	co	2d\	vol-	2r	.	4c\]	.	2f/	vol-
.	.	.	.	.	.	4B\	.	.	.
2E\	den-	4G/	to	2C/	N&egrave;	2c\	to	[2e/	to
.	.	[4G/	N&egrave;	.	.	.	.	.	.
=55	=55	=55	=55	=55	=55	=55	=55	=55	=55
2C/	troac-	4G/]	.	2c\	fo-	4r	.	2e/]	.
.	.	2A/	fo-	.	.	4c\	N&egrave;	.	.
2D\	col-	.	.	2A/	co	2f\	fo-	4a/	N&egrave;
.	.	[4D/	co	.	.	.	.	[4dd\	fo-
=56	=56	=56	=56	=56	=56	=56	=56	=56	=56
2GG/	to	4D/]	.	2B\	den-	2d\	co	4dd\]	.
.	.	2G/	den-	.	.	.	.	2b\	co
2r	.	.	.	2G/	troac-	2e\	den-	.	.
.	.	4E/	troac-	.	.	.	.	[4cc\	den-
=57	=57	=57	=57	=57	=57	=57	=57	=57	=57
2r	.	2F/	col-	2A/	col-	2c\	troac-	4cc\]	.
.	.	.	.	.	.	.	.	4a/	troac-
2GG/	N&egrave;	2D/	to	2G/	to	2d\	col-	2b\	col-
=58	=58	=58	=58	=58	=58	=58	=58	=58	=58
2C/	fo-	4r	.	2E/	N&egrave;	4G/	to	4cc\	to
.	.	2C/	N&egrave;	.	.	4c\	N&egrave;	4g/	N&egrave;
4AA/	co	.	.	2A/	fo-	2e\	fo-	[2cc\	fo-
4AA/	N&egrave;	[4c\	fo-	.	.	.	.	.	.
=59	=59	=59	=59	=59	=59	=59	=59	=59	=59
2A\	fo-	4c\]	.	2F/	co	4f\	co	2cc\]	.
.	.	2A/	co	.	.	4c\	N&egrave;	.	.
2F\	co	.	.	4c\	den-	2f\	fo-	2a/	co
.	.	[4d\	den-	8B/L	.	.	.	.	.
.	.	.	.	8A/J	.	.	.	.	.
=60	=60	=60	=60	=60	=60	=60	=60	=60	=60
2.G\	den-	8d\L]	.	4.B\	.	2d\	co	2dd\	den-
.	.	8c\J	.	.	.	.	.	.	.
.	.	2B\	.	.	.	.	.	.	.
.	.	.	.	8c\	.	.	.	.	.
.	.	.	.	4d\	.	4g\	den-	4b\	troac-
4C/	troac-	4e\	troac-	4c\	troac-	4g\	troac-	[4cc\	col-
=61	=61	=61	=61	=61	=61	=61	=61	=61	=61
2G\	col-	4d\	col-	2d\	col-	1g\	col-	4cc\]	.
.	.	4G/	to	.	.	.	.	4b\	.
2C/	to	4r	.	2e\	to	.	.	4cc\	to
.	.	4C/	Co-	.	.	.	.	4cc\	Co-
=62	=62	=62	=62	=62	=62	=62	=62	=62	=62
4r	.	4E/	me	4r	.	2g\	to	4b\	me
4C/	Co-	4G/	l'al-	4E/	Co-	.	.	4g/	l'al-
4AA/	me	4C/	trui	4F/	me	2r	.	2a/	trui
4FF/	l'al-	4C/	Co-	4A/	l'al-	.	.	.	.
=63	=63	=63	=63	=63	=63	=63	=63	=63	=63
2C/	trui	4E/	me	2G/	trui	4r	.	2r	.
.	.	4G/	l'al-	.	.	4c\	Co-	.	.
2r	.	2C/	trui	4r	.	4e\	me	2g/	Co-
.	.	.	.	4E/	Co-	4g\	l'al-	.	.
=64	=64	=64	=64	=64	=64	=64	=64	=64	=64
4r	.	4r	.	4F/	me	2c\	trui	4a/	me
4C/	Co-	4e\	del	4A/	l'al-	.	.	4cc\	l'al-
4E\	me	4e\	suo	[2G/	trui	4g\	del	2b\	trui
4G\	l'al-	4d\	fer-	.	.	8g\L	suo	.	.
.	.	.	.	.	.	8f\J	fer-	.	.
=65	=65	=65	=65	=65	=65	=65	=65	=65	=65
4C/	trui	4.c\	ven-	2G/]	.	4.e\	ven-	4r	.
4C/	del	.	.	.	.	.	.	4e/	del
.	.	8B\	tea-	.	.	8d\	tea-	.	.
4C/	suo	2A/	ma-	2r	.	[2c\	ma-	4e/	suo
4D\	fer-	.	.	.	.	.	.	4f/	fer-
=66	=66	=66	=66	=66	=66	=66	=66	=66	=66
4.E\	ven-	2G/	re	4r	.	2c\]	.	4.g/	ven-
.	.	.	.	4e\	del	.	.	.	.
8F\	tea-	.	.	.	.	.	.	8a/	tea-
2G\	ma-	2r	.	4e\	suo	2B\	re	2b\	ma-
.	.	.	.	4d\	fer-	.	.	.	.
=67	=67	=67	=67	=67	=67	=67	=67	=67	=67
4C/	re	1r	.	4.c\	ven-	2.e\	Mai	2cc\	re
2C/	Mai	.	.	.	.	.	.	.	.
.	.	.	.	8B\	tea-	.	.	.	.
.	.	.	.	2A/	ma-	.	.	2r	.
4D\	ti	.	.	.	.	4f\	ti	.	.
=68	=68	=68	=68	=68	=68	=68	=68	=68	=68
2E\	po-	4B\	del	2G/	re	2g\	po-	4r	.
.	.	4c\	suo	.	.	.	.	2cc\	Mai
4F\	t&egrave;	[2d\	fer-	2r	.	4f\	t&egrave;	.	.
4G\	sec-	.	.	.	.	4d\	sec-	4b\	ti
=69	=69	=69	=69	=69	=69	=69	=69	=69	=69
[1D\	ca-	4d\]	.	2.F/	Mai	[1d\	ca-	2.a/	po-
.	.	2c\	ven-	.	.	.	.	.	.
.	.	4B\	tea-	4G/	ti	.	.	4g/	t&egrave;
=70	=70	=70	=70	=70	=70	=70	=70	=70	=70
1D\]	.	1A/	ma-	4A/	po-	1d\]	.	4f#/	sec-
.	.	.	.	8A/L	t&egrave;	.	.	2g/	ca-
.	.	.	.	8D/J	sec-	.	.	.	.
.	.	.	.	2d\	ca-	.	.	.	.
.	.	.	.	.	.	.	.	4f#/	.
=71	=71	=71	=71	=71	=71	=71	=71	=71	=71
1GG/	re	1G/	re	1B\	re	4d\	re	1g/	re
.	.	.	.	.	.	2d\	Mai	.	.
.	.	.	.	.	.	4e\	ti	.	.
=72	=72	=72	=72	=72	=72	=72	=72	=72	=72
2.FF/	Mai	2.A/	Mai	2.c\	Mai	[1f\	po-	2r	.
.	.	.	.	.	.	.	.	[2a/	Mai
4GG/	ti	4B\	ti	4B\	ti	.	.	.	.
=73	=73	=73	=73	=73	=73	=73	=73	=73	=73
1AA/	po-	1c\	po-	1A/	po-	2f\]	.	4a/]	.
.	.	.	.	.	.	.	.	4b\	ti
.	.	.	.	.	.	[2e\	t&egrave;	2cc\	po-
=74	=74	=74	=74	=74	=74	=74	=74	=74	=74
2BB/	t&egrave;	2d\	t&egrave;	2G/	t&egrave;	4e\]	.	2b\	t&egrave;
.	.	.	.	.	.	2d\	sec-	.	.
2C/	sec-	2e\	sec-	2E/	sec-	.	.	2a/	sec-
.	.	.	.	.	.	[4c\	ca-	.	.
=75	=75	=75	=75	=75	=75	=75	=75	=75	=75
1GG/	ca-	1d\	ca-	1G/	ca-	4c\]	.	1a/	ca-
.	.	.	.	.	.	8B/L	.	.	.
.	.	.	.	.	.	8A/J	.	.	.
.	.	.	.	.	.	2B\	.	.	.
=76	=76	=76	=76	=76	=76	=76	=76	=76	=76
1C/	re	1e\	re	1G/	re	1c\	re	1a/	re
=77	=77	=77	=77	=77	=77	=77	=77	=77	=77
2.FF/	Mai	2.A/	Mai	2r	.	2r	.	2.cc\	Mai
.	.	.	.	[2A/	Mai	[2c\	Mai	.	.
4GG/	ti	4G/	ti	.	.	.	.	4b\	ti
=78	=78	=78	=78	=78	=78	=78	=78	=78	=78
1AA/	po-	2F/	po-	4A/]	.	4c\]	.	1a/	po-
.	.	.	.	4B\	ti	4d\	ti	.	.
.	.	4E/	t&egrave;	2c\	po-	2e\	po-	.	.
.	.	4F/	sec-	.	.	.	.	.	.
=79	=79	=79	=79	=79	=79	=79	=79	=79	=79
2BB/	t&egrave;	[1G/	ca-	2B\	t&egrave;	2d\	t&egrave;	2g/	t&egrave;
2C/	sec-	.	.	4G/	sec-	2c\	sec-	2e/	sec-
.	.	.	.	[4c\	ca-	.	.	.	.
=80	=80	=80	=80	=80	=80	=80	=80	=80	=80
1GG/	ca-	1G/]	.	4c\]	.	1d\	ca-	1g/	ca-
.	.	.	.	8B/L	.	.	.	.	.
.	.	.	.	8A/J	.	.	.	.	.
.	.	.	.	2B\	.	.	.	.	.
=81	=81	=81	=81	=81	=81	=81	=81	=81	=81
1C/	re.	1G/	re.	1c\	re.	1e\	re.	1g/	re.
==	==	==	==	==	==	==	==	==	==
*-	*-	*-	*-	*-	*-	*-	*-	*-	*-
